X: 12842
T: Female Sailor, The
R: jig
M: 6/8
K: Eminor
D|:"Em"E2B "B7"B2A|"Em"G3 "Am"A3|"B7"B2A G2F|"Em"G2F "B7"E2^D|
"Em"E2B "B7"B2A|"Em"G3 "Am"A3|"B7"B2A G2F|"Em"E6:|
|:"Em"g2f "B7"e2^d|"Em"e3 B3|"C"g2f "B7"e2^d|"Em"e3 "E7"B2d|"Am"c2A "B7"B2F|
"Em"G2E G2A|1 "B7"B3 ^c2d|"Em"e3 "B7"f3:|2 "B7"B2A G2F|"Em"E6||

